X:3536
T:Crock of Gold, The
C:Vincent Broderick
R:reel
Z:id:hn-reel-583
M:C|
K:G
B2Bd BAGE|~G3A GEDB,|DEGA BAGA|BddB BA~A2|
B2Bd BAGE|~G3A GED2|g2fg egdB|DEGA BGG2:|
|:ea~a2 bage|a2ba gede|gedB GABd|gedB BAA2|
ea~a2 bage|a2ba gede|g2fg egdB|DEGA BGG2:|
"variations"
|:B2dB BAGE|G2GA GEDE|DEGA BAGA|B2dB BA~A2|
B2dB BAGE|GFGA GED2|g2fg egdB|DEGA BGG2:|
|:eaag a2ga|baga bagf|gedB G2Bd|gedB BAA2|
eaag a2ga|b2ab gede|g2fg egdB|DEGA BGG2:|


